coreui/free/cil-folder.svg

<svg xmlns="http://www.w3.org/2000/svg" viewBox="0 0 512 512">
  <path fill="var(--ci-primary-color, currentColor)" d="M472,472H40a24.028,24.028,0,0,1-24-24V64A24.028,24.028,0,0,1,40,40H226.667a23.935,23.935,0,0,1,22.154,14.77L269.333,104H472a24.028,24.028,0,0,1,24,24V448A24.028,24.028,0,0,1,472,472ZM48,440H464V136H248L221.333,72H48Z" class="ci-primary"/>
</svg>

<svg viewBox="0 0 512 512" xmlns="http://www.w3.org/2000/svg"><path d="M472 472H40v0c-13.25-.02-23.99-10.76-24-24V64v-.001c.01-13.25 10.75-23.99 24-24h186.667v0c9.69-.02 18.44 5.81 22.15 14.77l20.51 49.23h202.66l-.001-.001c13.24.01 23.98 10.75 24 24v320 0c-.02 13.24-10.76 23.98-24 24ZM48 440h416V136H248l-26.667-64H48Z"/></svg>
